X: 1
T: Champaign Jig Goes To Columbia, The
C: Liz Carroll
Z: JACKB
S: https://thesession.org/tunes/2438#setting27769
R: jig
M: 6/8
L: 1/8
K: Dmaj
de|:f3 dAF|ABd F2 E|FAd dB/c/d|ecA gfe|
f3 dAF|ABd F2 E|EDf dAF|1 EDE Dde:|2 EDE DFA||
|:dB/c/d afd|cBA ecA|BAG dBG|FED EFA|
f3 dAF|ABd F2 E|FDf dAF|1 E3 EFA:|2 FDE D3||

